svgs/sharp-solid/bangladeshi-taka-sign.svg

<svg xmlns="http://www.w3.org/2000/svg" viewBox="0 0 384 512"><!--! Font Awesome Pro 6.5.2 by @fontawesome - https://fontawesome.com License - https://fontawesome.com/license (Commercial License) Copyright 2024 Fonticons, Inc. --><path d="M0 96H32c17.7 0 32 14.3 32 32v32H0v64H64V384c0 53 43 96 96 96h32c106 0 192-86 192-192V256c0-53-43-96-96-96H256v64h32c17.7 0 32 14.3 32 32v32c0 70.7-57.3 128-128 128H160c-17.7 0-32-14.3-32-32V224h64V160H128V128c0-53-43-96-96-96H0V96z"/></svg>

<svg xmlns="http://www.w3.org/2000/svg" viewBox="0 0 384 512"><!--! Font Awesome Pro 6.6.0 by @fontawesome - https://fontawesome.com License - https://fontawesome.com/license (Commercial License) Copyright 2024 Fonticons, Inc. --><path d="M0 96l32 0c17.7 0 32 14.3 32 32l0 32L0 160l0 64 64 0 0 160c0 53 43 96 96 96l32 0c106 0 192-86 192-192l0-32c0-53-43-96-96-96l-32 0 0 64 32 0c17.7 0 32 14.3 32 32l0 32c0 70.7-57.3 128-128 128l-32 0c-17.7 0-32-14.3-32-32l0-160 64 0 0-64-64 0 0-32c0-53-43-96-96-96L0 32 0 96z"/></svg>
